X:39
T:My Marianne
S:Bernie Waugh
R:Reel
M:4/4
L:1/8
K:C
|:\
"C"c3~c- cAGc|"Dm"Ad2~d- dcAB|"C"c3~c- cAGE|"F"FEDE "G"FGAB|
"C"c2ed cAGc|"Dm"Ad2~d- dcAB|"C"c2ed cAGE|"G"FAGF "C"ECC2:|
|:\
"C"eg-~ge c3d|"Am"ea2~a- aged|"C(7)"ecc/c/c dged|"F"cAGA "G"cBcd|
"C"eg-~ge c3d|"Am"ea2~a- aged|"F"ecc/c/c dged|1\
"G"cAGA cBcd:|2\
"G"cAGA "C"cGAB|]

